!!!SOCIAL_FUNCTION:	songs of the sun dance
!!!PDT:	1936
!!!OTL: No_45_Cheyenne_Sun-Dance_Song_(a).krn
!!!REG: Oklahoma and Montana
!!!LANG: Tone
!!!LING_GROUP: Algonquin
**kern
*staff1
=1-
*clefF4
*k[f#c#]
*M2/4
4d\
4d\
=2
*M3/4
8d\
16r
16A\
8A\L
16A\L
16G#\JJ
8A\
8r
=3
*M2/4
16B\LK
8.A\J
4A\
=4
*M3/4
8A\
16r
16A\
8A\L
16A\L
16G#\JJ
8A\
8r
=5
*M2/4
16B\LK
8.A\J
4A\
=6
*M3/4
8A\
16r
16F#\
8E\L
16G\L
16F#\JJ
8D\
8r
=7
8F#\L
8F#\J
8D\L
16F#\L
16E\JJ
8D\
8r
=8
*M2/4
16A\LK
8.A\J
4A\
=9
*M3/4
8A\
16r
16A\
8A\L
16A\L
16G#\JJ
8A\
8r
=10
*M2/4
8.B\L
16A\Jk
4A\
=11
*M3/4
8A\
16r
16F#\
8E\L
16G\L
16F#\JJ
8D\
8r
=12
8F#\L
8F#\J
8D\L
16F#\L
16E\JJ
8D\
8r
==
*-
